X: 6377
T: Castle Ceili's
R: reel
M: 4/4
K: Dmajor
|:D2FA (3Bcd AF|DFAF GE E2|D2FA B3c|dfec dBAF|
D2FA (3Bcd AF|DFAF GE E2|D2FA B3c|dfec d4:|
|:d2fd Adfd|d2fd BAFA|d2fd Adfa|afed BAFA|
d2fd Adfd|defd e3f|g3e dBBA|1 (3Bcd ec d3A:|2 (3Bcd ec dBAF||

